!! 00000] TT[WS
!!!OTL: Cuen xuan
!!!ARE: Asia, China, Shanxi Zuoquan
!! Ethnic Group: Han
!! WII, 231 (1)
!!!SCT: J0745
!!!YEM: Copyright 1995, estate of Helmut Schaffrath.
**kern
*ICvox
*Ivox
*M4/4
*k[b-]
*F:
{4a
8a
8cc
8dd
8ff
8dd
8cc
=1
4a
8a
8f
2g
=2
4a
8a
8cc
8dd
8ff
8dd
8cc
=3
4a
8a
8f
2g}
=4
{8a
8a
8a
8f
2g
=5
4a
8a
8f
2g
=6
4cc
8a
8g
4cc
8a
8g
=7
4f
8g
8e
2d}
==
!!!AGN: Xiaodiao. XÅshi, Xinminge
!!!ONB: ESAC (Essen Associative Code) Database: CHINA
!!!AMT: simple quadruple
!!!AIN: vox
!!!EED: Helmut Schaffrath
!!!EEV: 1.0
*-
